!!!COM: Bach, Johann Sebastian
!!!OTL@@DE: 348. Meinen Jesum la&szlig; ich nicht
!!!OTL@EN: I will not leave my Jesus
!!!SCA: BWV 70.11
**kern	**kern	**kern	**kern
*staff2	*staff2	*staff1	*staff1
*Iorgan	*Iorgan	*Iorgan	*Iorgan
!bass	!tenor	!alto	!sprno
*clefF4	*clefF4	*clefG2	*clefG2
*k[]	*k[]	*k[]	*k[]
*met(C)	*met(C)	*met(C)	*met(C)
*M4/4	*M4/4	*M4/4	*M4/4
*MM60	*MM60	*MM60	*MM60
=1-	=1-	=1-	=1-
8c\L	4c/	4e\	4g/
8B-\J	.	.	.
8A\L	4c/	4e\	4g/
8G\J	.	.	.
8F\L	4c/	4f\	4a/
8E\J	.	.	.
4D\	4d/	4f\	4a/
=2	=2	=2	=2
4G\	4d/	8f\L	4b/
.	.	8e\J	.
4GG\	4G/	4d\	4b/
2C;\	2G;/	2e;\	2cc;/
=3	=3	=3	=3
8BB\L	4d/	4g\	4dd/
8C\J	.	.	.
8D\L	4B/	4g\	4dd/
8E\J	.	.	.
8AA\L	4A/	4g\	4cc/
8BB\J	.	.	.
8C\L	4A/	4f#\	4cc/
8D\J	.	.	.
=4	=4	=4	=4
4GG\	8G/L	4d\	4b/
.	8F#/J	.	.
4C\	8E/L	8c\L	8a/L
.	8c/J	16d\L	16b/L
.	.	16e\JJ	16cc/JJ
2D\	8c/L	2f#\	2a/
.	8B/J	.	.
.	4A/	.	.
=5	=5	=5	=5
2GG;\	2B;/	2d;\	2g;/
8C\L	4c/	8e\L	4g/
8D\J	.	8d\J	.
8E\L	4G/	4c\	4g/
8C\J	.	.	.
=6	=6	=6	=6
8F\L	4F/	4c\	4a/
8E\J	.	.	.
8D\L	4F/	4d\	4a/
8C\J	.	.	.
8BB\L	4G/	8d\L	4g/
8C\J	.	8e\J	.
8AA\L	8c/L	8f\L	4f/
8BB\J	8G/J	8d\J	.
=7	=7	=7	=7
!!linebreak: 2
2C;\	2G;/	2c;\	2e;/
8E\L	4G/	4B\	4g/
8D\J	.	.	.
8C#\L	4A/	4e\	4g/
8AA\J	.	.	.
=8	=8	=8	=8
8D\L	4A/	4d\	4f/
8Cn\J	.	.	.
8BB\L	4G/	4d\	4f/
8GG\J	.	.	.
4C\	4.G/	8c\L	4e/
.	.	8B-\J	.
4FF\	.	4A\	8d/L
.	[8F/	.	16e/L
.	.	.	16f/JJ
=9	=9	=9	=9
2GG\	8F/L]	2G\	2d/
.	8E/J	.	.
.	4D/	.	.
2C;\	2E;/	2G;\	2c;/
=10	=10	=10	=10
8C\L	4.G/	8e\L	4cc/
8BB\J	.	8d\J	.
4AA\	.	4c\	4cc/
.	8F#/	.	.
8GG\L	4d/	[2g\	4b/
8AA\	.	.	.
8BB\	4d/	.	4b/
8C\J	.	.	.
=11	=11	=11	=11
4D\	4d/	8g\L]	4a/
.	.	16a\L	.
.	.	16g\JJ	.
4D#\	8c/L	16f#\LL	4a/
.	.	16e\J	.
.	8A/J	8f#\J	.
2E;\	2e;/	2B;\	2g;/
=12	=12	=12	=12
8AA\L	4c#/	4e\	4g/
8BB\	.	.	.
8C#\	4A/	4e\	4g/
8AA\J	.	.	.
4D\	[2A/	4d\	4f/
8AA\L	.	8cn\L	4e/
8GG\J	.	8B\J	.
=13	=13	=13	=13
4FF\	8A/L]	4A\	4d/
.	8D/	.	.
4GG\	8G/	4B\	4d/
.	8F/J	.	.
2C;\	2E;/	2G;\	2c;/
==	==	==	==
*-	*-	*-	*-
!!!ENC: Craig Stuart Sapp
!!!END: 2004/12/06/
!!chor2scor: -l 2 -s 0.6 -o %b.pmx
